frontend/public/svg/interface/diamond.svg

<svg width="182" height="155" viewBox="0 0 182 155" fill="none" xmlns="http://www.w3.org/2000/svg">
<g clip-path="url(#clip0)">
<path d="M5.30816 58.8157C6.47402 60.2708 7.67953 61.7733 8.77311 63.2892C25.0966 85.9274 43.2854 108.058 60.8743 129.458C66.7386 136.593 72.8023 143.97 78.7068 151.256C80.5944 153.586 82.3572 154.754 84.2623 154.932C84.4342 154.948 84.6068 154.956 84.7794 154.956C86.4906 154.956 88.296 154.171 90.4072 152.518C94.0644 149.553 97.4091 146.333 100.406 142.893C124.457 116.114 147.801 89.965 167.464 67.9158C169.654 65.4598 171.799 62.9177 173.875 60.4599C175.765 58.2203 177.72 55.9049 179.698 53.6666C181.968 51.0968 182.075 48.5331 180.016 46.0462C178.816 44.6062 177.528 43.2181 176.159 41.8871C173.024 38.82 169.881 35.7595 166.728 32.7055C163.534 29.6034 160.345 26.498 157.162 23.3896C155.854 22.1091 154.551 20.7837 153.29 19.5019C151.797 17.9836 150.253 16.4121 148.682 14.8982C143.778 10.1704 139.676 6.31564 135.774 2.76519C134.77 1.90578 133.494 1.29955 132.095 1.01643C130.381 0.70995 128.629 0.573705 126.877 0.610366C120.253 0.584428 113.629 0.589456 108.08 0.591987H103.178H103.142L88.7523 1.1556C75.702 1.66678 63.3748 2.15091 51.1832 2.5925C48.3267 2.69626 45.1904 3.079 44.1325 6.33655C44.007 6.54824 43.8356 6.73873 43.6263 6.89828C43.5434 6.97167 43.4618 7.04563 43.3857 7.11838C42.0736 8.36806 40.7645 9.6197 39.4585 10.8732C36.218 13.977 32.8666 17.1864 29.5143 20.2997C20.4854 28.7175 12.084 37.5871 4.35753 46.8586C3.20014 48.3526 2.29517 49.972 1.66828 51.6711C1.49197 52.1559 1.43347 52.6649 1.49561 53.1688C1.55776 53.6726 1.73937 54.1611 2.03034 54.606C3.0806 56.0376 4.21304 57.4504 5.30816 58.8157ZM162.107 57.0265C162.075 57.067 162.042 57.1069 162.01 57.1467C161.412 57.887 160.896 58.5273 160.323 59.1435C158.016 61.6273 155.696 64.1028 153.362 66.5701C148.865 71.3466 144.214 76.2864 139.786 81.2394C129.385 92.8746 118.895 104.756 108.751 116.247C104.518 121.043 100.282 125.837 96.0448 130.629C95.8699 130.828 95.6965 131.024 95.5216 131.215C96.0539 129.905 96.6076 128.563 97.1757 127.252C100.015 120.702 102.854 114.154 105.693 107.607C112.151 92.7139 118.599 77.8181 125.036 62.9191C125.58 61.5635 126.025 60.1815 126.368 58.781C126.52 58.2166 126.679 57.6338 126.856 57.0265H162.107ZM114.552 57.0101L84.1452 129.693C81.707 121.317 78.9737 112.943 76.3173 104.823C71.3208 89.5361 66.1577 73.7368 62.9119 57.67L114.552 57.0101ZM98.0799 9.65159C103.39 9.48647 108.745 9.49653 113.939 9.50412C119.147 9.51298 124.532 9.5219 129.862 9.35614L163.671 47.0971L124.237 47.7708L123.742 47.7796L98.0799 9.65159ZM64.1095 48.4965C71.2582 36.2603 80.3426 25.9039 90.5897 14.7325L109.136 47.6589L64.1095 48.4965ZM49.7687 57.9419C53.8465 74.7193 59.4963 91.336 64.9613 107.41C66.5492 112.079 68.1804 116.877 69.7653 121.656C58.0345 108.556 47.2727 94.677 36.8431 81.2262C30.9112 73.5742 24.7832 65.6717 18.5349 57.9863C23.9246 57.4688 42.5279 57.4156 49.7687 57.9413V57.9419ZM72.6228 10.2102C75.0422 10.1899 77.4611 10.171 79.8795 10.1533C80.1077 10.1501 80.3259 10.1616 80.6119 10.1787C70.783 21.1552 59.8963 34.0144 52.762 48.6894H13.908C14.1413 48.3595 14.4037 48.0446 14.6934 47.7474C24.0058 38.5442 31.8474 30.8087 39.8494 22.9689C41.9028 20.9539 44.0283 18.9231 46.0794 16.9587C48.0005 15.121 49.9144 13.2777 51.8207 11.4286C52.1259 11.0709 52.5327 10.7818 53.005 10.5867C53.4772 10.3917 54.0004 10.2968 54.5274 10.3108C60.5605 10.3114 66.6924 10.2582 72.6228 10.2095V10.2102Z" fill="black"/>
</g>
<defs>
<clipPath id="clip0">
<rect width="181" height="155" fill="white" transform="translate(0.777344)"/>
</clipPath>
</defs>
</svg>

<svg xmlns="http://www.w3.org/2000/svg" width="182" height="155" fill="none" viewBox="0 0 182 155"><g clip-path="url(#a)"><path fill="#000" d="M5.308 58.816c1.166 1.455 2.372 2.957 3.465 4.473 16.324 22.638 34.512 44.769 52.101 66.169 5.865 7.135 11.928 14.512 17.833 21.798 1.887 2.33 3.65 3.498 5.555 3.676q.258.024.517.024c1.712 0 3.517-.785 5.628-2.438a80.4 80.4 0 0 0 9.999-9.625c24.051-26.779 47.395-52.928 67.058-74.977 2.19-2.456 4.335-4.998 6.411-7.456 1.89-2.24 3.845-4.555 5.823-6.793 2.27-2.57 2.377-5.134.318-7.62a54 54 0 0 0-3.857-4.16 2632 2632 0 0 0-9.431-9.181 4876 4876 0 0 1-9.566-9.316c-1.308-1.28-2.611-2.606-3.872-3.888-1.493-1.518-3.037-3.09-4.608-4.604-4.904-4.728-9.006-8.582-12.908-12.133-1.004-.86-2.28-1.465-3.679-1.749a26.5 26.5 0 0 0-5.218-.406C120.253.584 113.629.59 108.08.592h-4.938l-14.39.564c-13.05.51-25.377.995-37.569 1.437-2.856.103-5.993.486-7.05 3.744a2 2 0 0 1-.507.561 9 9 0 0 0-.24.22q-1.968 1.875-3.928 3.755c-3.24 3.104-6.591 6.313-9.944 9.427A291 291 0 0 0 4.358 46.859a18.1 18.1 0 0 0-2.69 4.812 3.2 3.2 0 0 0-.172 1.498c.062.504.243.992.534 1.437 1.05 1.432 2.183 2.844 3.278 4.21m156.799-1.79-.097.12c-.598.741-1.114 1.381-1.687 1.998q-3.46 3.725-6.961 7.426c-4.497 4.777-9.148 9.716-13.576 14.67-10.401 11.635-20.891 23.516-31.035 35.007q-6.35 7.194-12.706 14.382-.262.299-.523.586a187 187 0 0 1 1.654-3.963l8.517-19.645a36565 36565 0 0 0 19.343-44.688 31 31 0 0 0 1.332-4.138c.152-.564.311-1.147.488-1.755zm-47.555-.016-30.407 72.683c-2.438-8.376-5.171-16.75-7.828-24.87-4.996-15.287-10.16-31.086-13.405-47.153zM98.08 9.652c5.31-.166 10.665-.155 15.859-.148 5.208.009 10.593.018 15.923-.148l33.809 37.741-39.434.674-.495.009zM64.11 48.497c7.148-12.237 16.233-22.593 26.48-33.764l18.546 32.926zm-14.341 9.445c4.078 16.777 9.727 33.394 15.192 49.468 1.588 4.669 3.22 9.467 4.804 14.246-11.73-13.1-22.492-26.979-32.922-40.43-5.932-7.652-12.06-15.554-18.308-23.24 5.39-.517 23.993-.57 31.234-.045M72.623 10.21l7.256-.057a10 10 0 0 1 .733.026c-9.829 10.976-20.716 23.835-27.85 38.51H13.908q.35-.495.785-.942A8015 8015 0 0 1 39.85 22.97c2.054-2.015 4.18-4.046 6.23-6.01q2.882-2.757 5.742-5.53a3.1 3.1 0 0 1 1.184-.842c.472-.195.995-.29 1.522-.276 6.033 0 12.165-.053 18.096-.101"/></g><defs><clipPath id="a"><path fill="#fff" d="M.777 0h181v155h-181z"/></clipPath></defs></svg>
